X: 6
T: The Ballydesmond
R: polka
M: 2/4
L: 1/8
K: Ador
|: EA AB | cd e2 | G>F GA | GE ED |
EA A>B | B/c/d e>f | ge dB |[1 A2 A>G :|[2 A2 AB/A/ ||
|: a>^g ab | ag ef | g>f ga | ge de |
a>^g ab | ag e>f | ge dB |[1 A2 AB/A/ :|[2 A2 A/B/A/G/ |]


Tune 238	Setting 12941

